X: 46
M:6/8
L:1/8
K:D
uA|\
(BA).B =c2A | (BA).B =c2A | BdB AFD | (EF).E E2c |
(BA).B =c2A | (BA).B =c2A | BdB AFA | (DE).D D2 :|
|:uG|\
|:ug|\
fdd edd | (fd).d d2A | BdB AFD | (EF).E E2g |
fdd edd | fdB AFA | DFA deg | fdd d2 :|


